X: 17
T: Pollonesse #17
M: 3/4
L: 1/16
K: D
Q:120
d2df e2eg f2fa|g2gb a2gf e2dc|d2df e2eg f2ed|c8 A4:|
A2BA G2F2 _E4|E4 E2GE F2ED|d2d2 e2e2 f2f2| e2dc d4D4:|

